X:11
T:No.44 An t-Eas
C:hornpipe
M:4/4
L:1/8
K:A
ed||cdec Aaga|fgaf eefe|dBed cAdc|
Beee gfed|cdec Aaga|fgaf eefe|
dBed cAdc|[1BGcB A2 ed:|[2BGcB A2 GA||
Beee cede|^defa gefg|agfe ^defg|
fedc BAGA|Beee cede|^defa gefg|
agfe ^defa|[1gfee (3efe ee:|[2gfee (3efe de||
